packages/appstore/src/assets/svgs/wallet/litecoin-dark.svg

<svg width="128" height="80" viewBox="0 0 128 80" fill="none" xmlns="http://www.w3.org/2000/svg">
<path d="M28.0746 26C25.2902 26 22.5684 26.8257 20.2533 28.3726C17.9382 29.9195 16.1337 32.1182 15.0682 34.6906C14.0027 37.263 13.7239 40.0936 14.2671 42.8245C14.8103 45.5553 16.1511 48.0638 18.1199 50.0326C20.0888 52.0015 22.5972 53.3423 25.3281 53.8855C28.059 54.4287 30.8896 54.1499 33.462 53.0843C36.0344 52.0188 38.2331 50.2144 39.78 47.8993C41.3269 45.5842 42.1526 42.8623 42.1526 40.078C42.1526 38.2292 41.7884 36.3986 41.0809 34.6906C40.3734 32.9826 39.3365 31.4306 38.0292 30.1233C36.7219 28.8161 35.17 27.7791 33.462 27.0716C31.754 26.3641 29.9233 26 28.0746 26ZM28.3027 40.5411L26.8384 45.4824H34.6709C34.7331 45.4825 34.7945 45.4972 34.8502 45.5251C34.9059 45.5531 34.9543 45.5936 34.9916 45.6435C35.0289 45.6933 35.0541 45.7512 35.0653 45.8125C35.0764 45.8738 35.0731 45.9368 35.0557 45.9966L34.3746 48.3429C34.3421 48.455 34.274 48.5535 34.1807 48.6235C34.0873 48.6936 33.9737 48.7313 33.857 48.7311H21.8937L23.9166 41.8999L21.6792 42.581L22.173 40.9838L24.4138 40.3027L27.2539 30.7063C27.2851 30.5938 27.3522 30.4947 27.4451 30.424C27.5379 30.3533 27.6514 30.3149 27.7681 30.3147H30.7989C30.8611 30.3144 30.9225 30.3287 30.9783 30.3562C31.034 30.3837 31.0826 30.4238 31.1203 30.4734C31.1579 30.5229 31.1835 30.5804 31.1951 30.6415C31.2067 30.7026 31.204 30.7656 31.1871 30.8255L28.8033 38.9406L31.0407 38.2595L30.5605 39.8839L28.3027 40.5411Z" fill="white"/>
<path d="M54.8324 30.1592C55.0438 30.1382 55.2566 30.1805 55.4439 30.2806C55.694 30.4143 55.881 30.6416 55.964 30.9129C56.0469 31.1841 56.0191 31.4771 55.8866 31.7279C55.7873 31.9157 55.6346 32.0697 55.4477 32.1706C55.2608 32.2715 55.0482 32.3146 54.8368 32.2945C54.6253 32.2745 54.4246 32.1921 54.2601 32.0578C54.0955 31.9236 53.9745 31.7435 53.9124 31.5404C53.8503 31.3373 53.8498 31.1204 53.9111 30.917C53.9724 30.7137 54.0927 30.5331 54.2567 30.3982C54.4207 30.2633 54.6211 30.1801 54.8324 30.1592Z" fill="white"/>
<path d="M49.4164 30.2738H50.295C50.4652 30.2738 50.5674 30.3487 50.5402 30.5462L48.2551 48.4757C48.2555 48.5136 48.2477 48.551 48.2323 48.5856C48.2168 48.6201 48.1941 48.6509 48.1656 48.6758C48.1371 48.7007 48.1036 48.7191 48.0673 48.7299C48.0311 48.7406 47.9929 48.7434 47.9555 48.738H47.0837C46.9032 48.738 46.8453 48.646 46.8657 48.4757L49.1201 30.5394C49.1218 30.5024 49.1309 30.4662 49.1468 30.4327C49.1627 30.3993 49.1851 30.3693 49.2126 30.3446C49.2402 30.3199 49.2724 30.3009 49.3074 30.2887C49.3424 30.2766 49.3794 30.2715 49.4164 30.2738Z" fill="white"/>
<path d="M53.9967 35.4432H54.8651C55.0558 35.4432 55.1137 35.5352 55.1069 35.7122L53.5029 48.4757C53.502 48.5147 53.4927 48.553 53.4757 48.5881C53.4587 48.6231 53.4343 48.6541 53.4043 48.679C53.3743 48.7039 53.3393 48.722 53.3017 48.7321C53.264 48.7423 53.2247 48.7443 53.1862 48.738H52.3144C52.151 48.738 52.0488 48.6494 52.0692 48.4757L53.697 35.7054C53.6982 35.6681 53.7071 35.6314 53.7231 35.5977C53.7391 35.5639 53.7618 35.5338 53.7899 35.5092C53.818 35.4846 53.8509 35.4661 53.8865 35.4547C53.922 35.4434 53.9596 35.4395 53.9967 35.4432Z" fill="white"/>
<path fill-rule="evenodd" clip-rule="evenodd" d="M93.1249 35.2321C91.9973 35.2062 90.8945 35.5657 89.9986 36.251C89.1028 36.9364 88.4674 37.9067 88.1973 39.0019C87.9547 40.0184 87.7739 41.0488 87.6558 42.0872C87.5161 43.1102 87.4342 44.1403 87.4106 45.1725C87.3992 45.6763 87.4894 46.1773 87.6761 46.6454C87.8628 47.1135 88.142 47.5391 88.497 47.8968C89.2053 48.5779 90.1758 48.9184 91.4086 48.9184C92.5377 48.944 93.6417 48.5836 94.5382 47.8968C95.4221 47.2175 96.047 46.2561 96.309 45.1725C96.5549 44.1566 96.7357 43.1261 96.8504 42.0872C96.9889 41.055 97.0696 40.0158 97.0922 38.9746C97.1152 38.4706 97.0314 37.9674 96.8466 37.498C96.6618 37.0285 96.3799 36.6034 96.0195 36.2503C95.227 35.542 94.1864 35.176 93.1249 35.2321ZM95.587 40.8476C95.5053 41.498 95.4542 41.9135 95.4372 42.0872C95.2737 43.4051 95.1273 44.3484 95.0013 44.9103C94.8317 45.7147 94.3904 46.4362 93.7515 46.9535C93.1281 47.4586 92.3471 47.7286 91.5448 47.7163C91.1797 47.7406 90.8136 47.6869 90.4708 47.5589C90.1279 47.4309 89.8163 47.2315 89.5564 46.9739C89.2965 46.7163 89.0944 46.4063 88.9634 46.0646C88.8324 45.723 88.7756 45.3573 88.7966 44.992C88.8044 44.4452 88.8453 43.8993 88.9192 43.3574C89.001 42.707 89.052 42.2949 89.0691 42.1178C89.2325 40.8544 89.379 39.9111 89.505 39.2981C89.6759 38.4943 90.1169 37.7732 90.7548 37.2549C91.379 36.7514 92.1595 36.4816 92.9615 36.4921C93.3266 36.4678 93.6927 36.5215 94.0355 36.6495C94.3783 36.7775 94.69 36.9769 94.9499 37.2345C95.2098 37.4921 95.4119 37.8021 95.5429 38.1438C95.6739 38.4855 95.7307 38.8511 95.7096 39.2164C95.7018 39.7621 95.6608 40.3069 95.587 40.8476Z" fill="white"/>
<path d="M101.216 35.4432H102.085C102.255 35.4432 102.326 35.5352 102.303 35.7054L100.699 48.4757C100.697 48.5129 100.688 48.5493 100.672 48.5828C100.655 48.6164 100.633 48.6463 100.605 48.6708C100.577 48.6953 100.544 48.7138 100.509 48.7254C100.473 48.7369 100.436 48.7412 100.399 48.738H99.5271C99.3636 48.738 99.2581 48.6596 99.2819 48.4757L100.917 35.7054C100.922 35.631 100.956 35.5617 101.012 35.5126C101.068 35.4635 101.142 35.4385 101.216 35.4432Z" fill="white"/>
<path d="M113.098 36.1958C112.498 35.5692 111.657 35.2593 110.567 35.2593C109.893 35.2522 109.225 35.3916 108.609 35.668C108.007 35.9434 107.482 36.3648 107.084 36.8939C107.012 36.962 106.975 36.945 106.975 36.8394L107.111 35.7054C107.131 35.5454 107.06 35.4432 106.893 35.4432H106.024C105.987 35.44 105.95 35.4442 105.915 35.4558C105.879 35.4673 105.847 35.4859 105.819 35.5104C105.791 35.5349 105.768 35.5648 105.752 35.5983C105.736 35.6318 105.726 35.6683 105.725 35.7054L104.121 48.4757C104.1 48.6426 104.158 48.738 104.339 48.738H105.211C105.248 48.7407 105.285 48.7361 105.32 48.7244C105.355 48.7127 105.387 48.6941 105.415 48.6696C105.443 48.6452 105.466 48.6155 105.482 48.5822C105.499 48.5489 105.508 48.5127 105.51 48.4757L106.678 39.3254C106.845 38.5319 107.266 37.8145 107.877 37.2821C108.474 36.7635 109.242 36.4844 110.033 36.4989C110.375 36.4842 110.716 36.5426 111.033 36.67C111.351 36.7974 111.638 36.991 111.875 37.2379C112.352 37.7762 112.597 38.4813 112.556 39.1994C112.56 39.3939 112.551 39.5884 112.529 39.7817L111.415 48.4757C111.407 48.5075 111.407 48.5406 111.414 48.5725C111.421 48.6044 111.436 48.6342 111.456 48.6596C111.482 48.687 111.514 48.7082 111.549 48.7218C111.585 48.7353 111.623 48.7409 111.66 48.738H112.529C112.566 48.7412 112.603 48.7369 112.639 48.7254C112.674 48.7138 112.707 48.6953 112.735 48.6708C112.763 48.6463 112.785 48.6164 112.801 48.5828C112.818 48.5493 112.827 48.5129 112.828 48.4757L113.945 39.5638C113.983 39.2232 114 38.9474 114 38.7737C114.027 38.3057 113.961 37.837 113.806 37.3946C113.652 36.9521 113.411 36.5447 113.098 36.1958Z" fill="white"/>
<path d="M102.708 30.2806C102.52 30.1822 102.307 30.1417 102.096 30.1643C101.885 30.1869 101.685 30.2715 101.522 30.4075C101.359 30.5436 101.241 30.7248 101.181 30.9284C101.121 31.132 101.123 31.3487 101.186 31.5512C101.25 31.7538 101.372 31.9329 101.537 32.0661C101.702 32.1992 101.903 32.2804 102.114 32.2993C102.326 32.3182 102.538 32.274 102.724 32.1723C102.91 32.0706 103.062 31.9159 103.161 31.7279C103.292 31.4759 103.319 31.1819 103.234 30.9105C103.149 30.6391 102.96 30.4125 102.708 30.2806Z" fill="white"/>
<path d="M78.5904 36.2741C79.492 35.5751 80.6066 35.2072 81.7472 35.2321C82.808 35.1706 83.85 35.5318 84.6452 36.2367C85.0067 36.5891 85.2895 37.014 85.475 37.4836C85.6605 37.9532 85.7444 38.4567 85.7213 38.961V39.2709C85.7213 39.2918 85.7171 39.3124 85.7091 39.3316C85.701 39.3509 85.6891 39.3683 85.6742 39.3829C85.6593 39.3975 85.6416 39.4089 85.6222 39.4166C85.6028 39.4243 85.5821 39.428 85.5613 39.4275H84.5396C84.5127 39.4276 84.486 39.4222 84.4611 39.4116C84.4363 39.4011 84.4138 39.3857 84.3951 39.3663C84.3764 39.3469 84.3617 39.324 84.352 39.2988C84.3423 39.2736 84.3378 39.2468 84.3387 39.2198V39.1994C84.3598 38.8338 84.3029 38.4678 84.1717 38.1259C84.0406 37.7839 83.8381 37.4738 83.5779 37.2161C83.3176 36.9585 83.0055 36.7591 82.6623 36.6313C82.319 36.5036 81.9525 36.4503 81.5871 36.4751C80.7862 36.4645 80.0068 36.7343 79.3838 37.2379C78.7474 37.7608 78.3107 38.4873 78.1477 39.2947C78.0183 39.9077 77.8752 40.851 77.7118 42.1144C77.6913 42.2915 77.63 42.8125 77.5619 43.354C77.488 43.8959 77.4471 44.4417 77.4393 44.9886C77.4183 45.3539 77.4751 45.7196 77.6061 46.0612C77.7371 46.4029 77.9392 46.7129 78.1991 46.9705C78.4589 47.2281 78.7706 47.4275 79.1134 47.5555C79.4563 47.6835 79.8224 47.7372 80.1875 47.7129C80.9888 47.7258 81.769 47.4557 82.3908 46.9501C83.0305 46.4329 83.473 45.7115 83.644 44.9069C83.6426 44.8899 83.6426 44.8728 83.644 44.8558C83.6533 44.8189 83.6749 44.7863 83.7053 44.7634C83.7356 44.7405 83.7729 44.7286 83.8109 44.7298H84.8836C84.902 44.7298 84.9201 44.734 84.9366 44.742C84.9532 44.75 84.9677 44.7617 84.9792 44.7761C84.9906 44.7904 84.9987 44.8072 85.0028 44.8251C85.0069 44.8431 85.0069 44.8617 85.0028 44.8796C84.9789 44.9818 84.9551 45.0771 84.9313 45.1691C84.6727 46.2533 84.0486 47.2154 83.1638 47.8934C82.2671 48.5797 81.1633 48.94 80.0343 48.915C78.8015 48.915 77.831 48.5745 77.1226 47.8934C76.7657 47.537 76.4851 47.1116 76.2977 46.6433C76.1104 46.1749 76.0203 45.6733 76.0329 45.1691C76.0591 44.137 76.1409 43.107 76.2781 42.0838C76.4029 41.0461 76.5848 40.0161 76.823 38.9985C77.0868 37.9165 77.7099 36.9561 78.5904 36.2741Z" fill="white"/>
<path fill-rule="evenodd" clip-rule="evenodd" d="M72.9614 36.2605C72.1685 35.5501 71.1265 35.1828 70.0634 35.2389C68.9357 35.2131 67.833 35.5725 66.9371 36.2578C66.0412 36.9432 65.4058 37.9135 65.1358 39.0087C64.8941 40.0254 64.7133 41.0557 64.5943 42.094C64.436 43.1149 64.354 44.1462 64.3491 45.1793C64.3376 45.6831 64.4279 46.1841 64.6146 46.6522C64.8012 47.1203 65.0804 47.5459 65.4354 47.9036C66.1438 48.5847 67.1143 48.9253 68.3471 48.9253C69.4761 48.9508 70.5801 48.5904 71.4767 47.9036C72.3612 47.2248 72.9862 46.2632 73.2475 45.1793C73.2713 45.0873 73.2951 44.992 73.319 44.8898C73.3231 44.8719 73.3231 44.8533 73.319 44.8354C73.3149 44.8174 73.3068 44.8007 73.2954 44.7863C73.284 44.7719 73.2694 44.7603 73.2529 44.7522C73.2363 44.7442 73.2182 44.74 73.1998 44.74H72.1169C72.079 44.7395 72.042 44.7515 72.0118 44.7744C71.9816 44.7972 71.9598 44.8294 71.95 44.866V44.9171C71.7804 45.7215 71.3391 46.443 70.7002 46.9603C70.0722 47.4596 69.2887 47.7223 68.4867 47.7027C68.1216 47.727 67.7555 47.6733 67.4126 47.5453C67.0698 47.4173 66.7581 47.2179 66.4983 46.9603C66.2384 46.7027 66.0362 46.3927 65.9053 46.051C65.7743 45.7093 65.7174 45.3437 65.7385 44.9784C65.7448 44.5013 65.7777 44.0249 65.8373 43.5515L73.7004 41.1166C73.7724 41.101 73.8369 41.0609 73.8828 41.0032C73.9287 40.9455 73.9533 40.8737 73.9524 40.7999C74.0001 40.3913 74.0307 39.7 74.0375 38.9917C74.0513 38.4874 73.9631 37.9856 73.7781 37.5163C73.5932 37.047 73.3154 36.6198 72.9614 36.2605ZM72.6515 39.935C72.6502 39.9728 72.637 40.0093 72.6138 40.0393C72.5905 40.0692 72.5585 40.0911 72.5221 40.1018L66.0042 42.1144V42.0872C66.1676 40.8238 66.314 39.8805 66.44 39.2675C66.6109 38.4636 67.052 37.7425 67.6898 37.2242C68.3141 36.7207 69.0946 36.4509 69.8965 36.4614C70.2647 36.4467 70.6319 36.5081 70.9752 36.6417C71.3186 36.7753 71.6307 36.9782 71.8921 37.2379C72.6958 38.0245 72.6992 38.8657 72.6515 39.935Z" fill="white"/>
<path d="M61.4864 47.2979C61.4479 47.2966 61.4097 47.3059 61.3761 47.3247C60.8176 47.5869 59.7517 47.8389 59.1864 47.3622C58.7808 46.9696 58.8654 46.269 58.9602 45.4838C58.9641 45.4517 58.968 45.4194 58.9719 45.387L59.9254 37.7146H62.6497C62.7273 37.7196 62.8042 37.698 62.8677 37.6533C62.9208 37.5986 62.9501 37.5252 62.9494 37.449L63.0243 36.8428C63.0346 36.676 62.963 36.5806 62.8064 36.5806H60.0821L60.5997 32.3579C60.6235 32.2081 60.5826 32.0957 60.3817 32.0957H59.5406C59.5034 32.0919 59.4659 32.0959 59.4303 32.1072C59.3948 32.1186 59.3619 32.1371 59.3338 32.1617C59.3057 32.1863 59.283 32.2164 59.267 32.2502C59.251 32.2839 59.2421 32.3206 59.2409 32.3579L58.8595 35.3376L58.696 36.6828L57.545 46.0341C57.402 47.2634 57.6574 48.2476 58.6552 48.7039C59.5369 49.0273 60.507 49.0139 61.3795 48.6664C61.4328 48.6457 61.4795 48.611 61.5148 48.5661C61.5501 48.5212 61.5728 48.4677 61.5804 48.411L61.6894 47.529C61.6931 47.4907 61.6862 47.452 61.6695 47.4173C61.6527 47.3826 61.6268 47.3531 61.5946 47.3321C61.5623 47.3111 61.5249 47.2992 61.4864 47.2979Z" fill="white"/>
</svg>

<svg width="128" height="80" fill="none" xmlns="http://www.w3.org/2000/svg"><path d="M28.075 26a14.078 14.078 0 1 0 0 28.156 14.078 14.078 0 0 0 0-28.156zm.228 14.541-1.465 4.941h7.833a.402.402 0 0 1 .385.515l-.681 2.346a.538.538 0 0 1-.518.388H21.894l2.023-6.831-2.238.681.494-1.597 2.24-.681 2.84-9.597a.534.534 0 0 1 .515-.391h3.03a.402.402 0 0 1 .39.51l-2.385 8.116 2.238-.681-.48 1.624-2.258.657zM54.832 30.16a1.072 1.072 0 1 1 .212 2.134 1.072 1.072 0 0 1-.212-2.135zM49.416 30.274h.879c.17 0 .272.075.245.272l-2.285 17.93a.263.263 0 0 1-.3.262h-.871c-.18 0-.239-.092-.218-.262l2.254-17.937a.278.278 0 0 1 .296-.265zM53.997 35.443h.868c.19 0 .249.092.242.27l-1.604 12.763a.272.272 0 0 1-.317.262h-.872c-.163 0-.265-.089-.245-.262l1.628-12.77a.272.272 0 0 1 .3-.263z" fill="#fff"/><path fill-rule="evenodd" clip-rule="evenodd" d="M93.125 35.232a4.958 4.958 0 0 0-4.928 3.77 25.898 25.898 0 0 0-.541 3.085 27.439 27.439 0 0 0-.245 3.085 3.747 3.747 0 0 0 1.086 2.725c.708.68 1.679 1.021 2.912 1.021a4.961 4.961 0 0 0 3.13-1.021 4.883 4.883 0 0 0 1.77-2.724 24.58 24.58 0 0 0 .541-3.086 27.97 27.97 0 0 0 .242-3.112 3.585 3.585 0 0 0-1.073-2.725 4.025 4.025 0 0 0-2.894-1.018zm2.462 5.616a67.64 67.64 0 0 0-.15 1.24c-.163 1.317-.31 2.26-.436 2.822a3.579 3.579 0 0 1-1.25 2.044 3.422 3.422 0 0 1-2.206.762 2.58 2.58 0 0 1-2.748-2.724c.007-.547.048-1.093.122-1.635.082-.65.133-1.062.15-1.24.163-1.263.31-2.206.436-2.819a3.596 3.596 0 0 1 1.25-2.043 3.443 3.443 0 0 1 2.207-.763 2.58 2.58 0 0 1 2.748 2.724c-.008.546-.05 1.09-.123 1.632z" fill="#fff"/><path d="M101.216 35.443h.869c.17 0 .241.092.218.262l-1.604 12.77a.284.284 0 0 1-.094.196.28.28 0 0 1-.206.067h-.872c-.163 0-.269-.078-.245-.262l1.635-12.77a.281.281 0 0 1 .299-.263zM113.098 36.196c-.6-.627-1.441-.937-2.531-.937a4.663 4.663 0 0 0-1.958.409 3.981 3.981 0 0 0-1.525 1.226c-.072.068-.109.051-.109-.055l.136-1.134c.02-.16-.051-.262-.218-.262h-.869a.272.272 0 0 0-.205.067.274.274 0 0 0-.094.195l-1.604 12.77c-.021.168.037.263.218.263h.872a.28.28 0 0 0 .299-.262l1.168-9.15a3.729 3.729 0 0 1 1.199-2.044 3.198 3.198 0 0 1 2.156-.783 2.405 2.405 0 0 1 1.842.739c.477.538.722 1.243.681 1.961.004.195-.005.39-.027.583l-1.114 8.694a.211.211 0 0 0 .041.184.256.256 0 0 0 .204.078h.869a.28.28 0 0 0 .206-.067.27.27 0 0 0 .066-.088.25.25 0 0 0 .027-.107l1.117-8.912c.038-.34.055-.617.055-.79a3.552 3.552 0 0 0-.902-2.578zM102.708 30.28a1.073 1.073 0 1 0-.996 1.903 1.073 1.073 0 0 0 .996-1.902zM78.59 36.274a4.975 4.975 0 0 1 3.157-1.042c1.061-.061 2.103.3 2.898 1.005a3.576 3.576 0 0 1 1.076 2.724v.31a.158.158 0 0 1-.099.146.155.155 0 0 1-.06.01H84.54a.199.199 0 0 1-.145-.06.202.202 0 0 1-.056-.147v-.02a2.581 2.581 0 0 0-2.752-2.725c-.8-.01-1.58.26-2.203.763a3.579 3.579 0 0 0-1.236 2.057c-.13.613-.273 1.556-.436 2.82-.02.176-.082.697-.15 1.239a13.524 13.524 0 0 0-.123 1.635 2.582 2.582 0 0 0 2.749 2.724 3.406 3.406 0 0 0 2.203-.763 3.586 3.586 0 0 0 1.253-2.043.311.311 0 0 1 0-.051.167.167 0 0 1 .167-.126h1.073a.121.121 0 0 1 .095.046.123.123 0 0 1 .024.104c-.024.102-.048.197-.072.29a4.85 4.85 0 0 1-1.767 2.723c-.897.687-2 1.047-3.13 1.022-1.233 0-2.203-.34-2.911-1.022a3.72 3.72 0 0 1-1.09-2.724c.026-1.032.108-2.062.245-3.085.125-1.038.307-2.068.545-3.086a4.92 4.92 0 0 1 1.767-2.724z" fill="#fff"/><path fill-rule="evenodd" clip-rule="evenodd" d="M72.961 36.26a4.025 4.025 0 0 0-2.898-1.021 4.959 4.959 0 0 0-4.927 3.77 26.276 26.276 0 0 0-.542 3.085 20.779 20.779 0 0 0-.245 3.085 3.745 3.745 0 0 0 1.086 2.725c.709.68 1.68 1.021 2.912 1.021a4.962 4.962 0 0 0 3.13-1.021 4.874 4.874 0 0 0 1.77-2.725c.024-.092.048-.187.072-.29a.122.122 0 0 0-.066-.137.122.122 0 0 0-.053-.012h-1.083a.17.17 0 0 0-.167.126v.051a3.579 3.579 0 0 1-1.25 2.043c-.628.5-1.411.762-2.213.743a2.581 2.581 0 0 1-2.748-2.725c.006-.477.039-.953.098-1.427l7.863-2.434a.32.32 0 0 0 .252-.317c.048-.409.079-1.1.085-1.808a3.744 3.744 0 0 0-1.076-2.731zm-.31 3.675a.18.18 0 0 1-.129.167l-6.518 2.012v-.027c.164-1.263.31-2.207.436-2.82a3.597 3.597 0 0 1 1.25-2.043 3.443 3.443 0 0 1 2.207-.763 2.68 2.68 0 0 1 1.995.777c.804.787.807 1.628.76 2.697z" fill="#fff"/><path d="M61.486 47.298a.211.211 0 0 0-.11.027c-.558.262-1.624.514-2.19.037-.405-.392-.32-1.093-.226-1.878l.012-.097.953-7.672h2.725a.34.34 0 0 0 .218-.062.29.29 0 0 0 .081-.204l.075-.606c.01-.167-.061-.262-.218-.262h-2.724l.518-4.223c.023-.15-.017-.262-.218-.262h-.841a.273.273 0 0 0-.3.262l-.382 2.98-.163 1.345-1.151 9.351c-.143 1.23.112 2.214 1.11 2.67.882.323 1.852.31 2.724-.038a.32.32 0 0 0 .201-.255l.11-.882a.211.211 0 0 0-.204-.231z" fill="#fff"/></svg>
